packages/IcoMoon/src/BarcodeIcon/index.svg

<svg xmlns="http://www.w3.org/2000/svg" viewBox="0 0 16 16">
  <path d="M0 2h2v10H0zm3 0h1v10H3zm2 0h1v10H5zm3 0h1v10H8zm4 0h1v10h-1zm3 0h1v10h-1zm-5 0h.5v10H10zM7 2h.5v10H7zm6.5 0h.5v10h-.5zM0 13h1v1H0zm3 0h1v1H3zm2 0h1v1H5zm5 0h1v1h-1zm5 0h1v1h-1zm-3 0h2v1h-2zm-5 0h2v1H7z"/>
</svg>

<svg version="1.1" xmlns="http://www.w3.org/2000/svg" width="16" height="16" viewBox="0 0 16 16">
<path d="M0 2h2v10h-2zM3 2h1v10h-1zM5 2h1v10h-1zM8 2h1v10h-1zM12 2h1v10h-1zM15 2h1v10h-1zM10 2h0.5v10h-0.5zM7 2h0.5v10h-0.5zM13.5 2h0.5v10h-0.5zM0 13h1v1h-1zM3 13h1v1h-1zM5 13h1v1h-1zM10 13h1v1h-1zM15 13h1v1h-1zM12 13h2v1h-2zM7 13h2v1h-2z"></path>
</svg>
